X:173
T:Did You Wash Your Father's Shirt?
R:reel
H:words provided by Trevor Jennings, who got them from a colleague,
H:who learnt them from his grandmother.
D:Paddy Moloney & Sean Potts: Tin Whistles
Z:id:hn-reel-173
M:C|
K:D
g|:fde^c dcAg|fde^c d2de|fde^c dBAB|1 =cAGE D3g:|2 =cAGE D2AD||
|:(3EFG AB =cAG2|Add^c d3e|fde^c dBAB|1 =cAGE D2AD:|2 =cAGE D3||
W:Have you washed your father's shirt?
W:Have you washed it clean?
W:Have you hung it on the line
W:Out on the village green?

